assets/1st place medal/Flat/1st_place_medal_flat.svg

<svg width="32" height="32" viewBox="0 0 32 32" fill="none" xmlns="http://www.w3.org/2000/svg">
<path d="M18.7678 11.51L13.5478 2.93001C13.2078 2.35001 12.5978 2 11.9278 2H5.3378C3.8878 2 2.9778 3.56001 3.6878 4.82001C5.0078 7.15001 6.8678 9.14001 9.1178 10.6C9.8778 11.19 10.8178 11.51 11.7878 11.51H18.7678Z" fill="#0074BA"/>
<path d="M26.6578 2H20.0678C19.3978 2 18.7878 2.35001 18.4478 2.93001L13.2278 11.51H20.2178C21.1878 11.51 22.1178 11.19 22.8878 10.6C25.1378 9.14001 26.9978 7.16001 28.3178 4.82001C29.0178 3.56001 28.1078 2 26.6578 2Z" fill="#00A6ED"/>
<path d="M15.9901 29.9999C21.535 29.9999 26.0301 25.3929 26.0301 19.7099C26.0301 14.0269 21.535 9.41992 15.9901 9.41992C10.4451 9.41992 5.95007 14.0269 5.95007 19.7099C5.95007 25.3929 10.4451 29.9999 15.9901 29.9999Z" fill="#FFB02E"/>
<path d="M14.0759 16.041C14.0759 15.4887 14.5236 15.041 15.0759 15.041H16C16.5523 15.041 17 15.4887 17 16.041V23C17 23.5523 16.5523 24 16 24C15.4477 24 15 23.5523 15 23V17.0382C14.4832 16.9994 14.0759 16.5678 14.0759 16.041Z" fill="#6D4534"/>
<path d="M16 28.7599C13.64 28.7599 11.42 27.8199 9.76004 26.1099C8.09004 24.3999 7.17004 22.1299 7.17004 19.7099C7.17004 17.2899 8.09004 15.0199 9.76004 13.3099C13.2 9.77985 18.8 9.77985 22.25 13.3099C25.69 16.8399 25.69 22.5799 22.25 26.1099C20.57 27.8199 18.35 28.7599 16 28.7599ZM15.99 11.8899C14.04 11.8899 12.08 12.6499 10.6 14.1799C9.16004 15.6599 8.37004 17.6199 8.37004 19.7099C8.37004 21.7999 9.16004 23.7599 10.6 25.2399C12.04 26.7199 13.96 27.5299 15.99 27.5299C18.03 27.5299 19.94 26.7199 21.38 25.2399C24.35 22.1899 24.35 17.2299 21.38 14.1799C19.9 12.6499 17.95 11.8899 15.99 11.8899Z" fill="#FCD53F"/>
</svg>

<svg xmlns="http://www.w3.org/2000/svg" width="32" height="32" fill="none"><path fill="#0074BA" d="m18.768 11.51-5.22-8.58c-.34-.58-.95-.93-1.62-.93h-6.59c-1.45 0-2.36 1.56-1.65 2.82a16.7 16.7 0 0 0 5.43 5.78c.76.59 1.7.91 2.67.91h6.98Z"/><path fill="#00A6ED" d="M26.658 2h-6.59c-.67 0-1.28.35-1.62.93l-5.22 8.58h6.99c.97 0 1.9-.32 2.67-.91 2.25-1.46 4.11-3.44 5.43-5.78.7-1.26-.21-2.82-1.66-2.82Z"/><path fill="#FFB02E" d="M15.99 30c5.545 0 10.04-4.607 10.04-10.29 0-5.683-4.495-10.29-10.04-10.29-5.545 0-10.04 4.607-10.04 10.29C5.95 25.393 10.445 30 15.99 30Z"/><path fill="#6D4534" d="M14.076 16.041a1 1 0 0 1 1-1H16a1 1 0 0 1 1 1V23a1 1 0 1 1-2 0v-5.962a1 1 0 0 1-.924-.997Z"/><path fill="#FCD53F" d="M16 28.76c-2.36 0-4.58-.94-6.24-2.65a9.098 9.098 0 0 1-2.59-6.4c0-2.42.92-4.69 2.59-6.4a8.69 8.69 0 0 1 12.49 0c3.44 3.53 3.44 9.27 0 12.8-1.68 1.71-3.9 2.65-6.25 2.65Zm-.01-16.87c-1.95 0-3.91.76-5.39 2.29a7.873 7.873 0 0 0-2.23 5.53c0 2.09.79 4.05 2.23 5.53a7.476 7.476 0 0 0 5.39 2.29c2.04 0 3.95-.81 5.39-2.29 2.97-3.05 2.97-8.01 0-11.06a7.46 7.46 0 0 0-5.39-2.29Z"/></svg>
